X: 39274
T: Táim In Arrears
R: slip jig
M: 9/8
K: Adorian
eaa aba ged|eaa age g2a|
baa aba ged|1 ede gdB AB/c/d:|2 ede gdB A3||
BAA ABA G2A|BAA AB/c/d e2d|
ege dBA G2A|1 BeB dBA A3:|2 BeB dBA AB/c/d||

